X:2247
T:Girls of Edmonton, The
O:england
C:Charles De Lint
S:The Little country
M:6/8
L:1/8
K:D
B|A2D G2B|dcB BAG|ABA AGF|GFG E2B|
A2D G2B|dcB BAG|ABA GFE|1 D2F/E/ D2B:|2 D2F/E/ DFA||
d2A e2A|a2g/f/ fed|ag/f/f ed|cde ecA|
FED GFE|AGF d3|ag/f/f ed|1 Aec d2A:|2 Aec d2||


